app/assets/images/social-linked.svg

<?xml version="1.0" encoding="UTF-8" standalone="no"?>
<svg width="26px" height="26px" viewBox="0 0 26 26" version="1.1" xmlns="http://www.w3.org/2000/svg" xmlns:xlink="http://www.w3.org/1999/xlink" xmlns:sketch="http://www.bohemiancoding.com/sketch/ns">
    <!-- Generator: Sketch 3.3.3 (12072) - http://www.bohemiancoding.com/sketch -->
    <title>social-linked</title>
    <desc>Created with Sketch.</desc>
    <defs></defs>
    <g id="Footers" stroke="none" stroke-width="1" fill="none" fill-rule="evenodd" sketch:type="MSPage">
        <g id="Style-Guide-Footers" sketch:type="MSArtboardGroup" transform="translate(-1154.000000, -1312.000000)">
            <g id="Item-Limits" sketch:type="MSLayerGroup" transform="translate(134.000000, 874.000000)">
                <g id="3" transform="translate(1.000000, 395.000000)" sketch:type="MSShapeGroup">
                    <g id="social-icons" transform="translate(916.000000, 44.000000)">
                        <g id="social-linked" transform="translate(104.000000, 0.000000)">
                            <circle id="Oval-3" stroke="#3E53A4" stroke-width="2" cx="12" cy="12" r="12"></circle>
                            <path d="M16.4826207,17.5866207 L7.10358621,17.5866207 C6.49365517,17.5866207 6,17.0921379 6,16.4826207 L6,7.104 C6,6.49448276 6.49365517,6 7.10358621,6 L16.4826207,6 C17.0921379,6 17.5862069,6.49448276 17.5862069,7.104 L17.5862069,16.4826207 C17.5862069,17.0921379 17.0921379,17.5866207 16.4826207,17.5866207 L16.4826207,17.5866207 Z M8.85475862,8.47903448 C8.37931034,8.47903448 8.06855172,8.83406897 8.06855172,9.3 C8.06855172,9.756 8.3697931,10.1209655 8.83655172,10.1209655 L8.84565517,10.1209655 C9.33062069,10.1209655 9.63227586,9.756 9.63227586,9.3 C9.62317241,8.83406897 9.33062069,8.47903448 8.85475862,8.47903448 L8.85475862,8.47903448 Z M8.15048276,15.5201379 L9.72082759,15.5201379 L9.72082759,10.634069 L8.15048276,10.634069 L8.15048276,15.5201379 Z M15.9264828,12.8151724 C15.9264828,11.3656552 15.1762759,10.5575172 14.1070345,10.5575172 C13.2426207,10.5575172 12.8582069,11.0172414 12.6430345,11.337931 L12.6430345,10.6688276 L10.9663448,10.6688276 C10.9874483,11.1107586 10.9663448,15.5201379 10.9663448,15.5201379 L12.6430345,15.5201379 L12.6430345,12.8855172 C12.6430345,12.7444138 12.6533793,12.6037241 12.6964138,12.5027586 C12.813931,12.2209655 13.0812414,11.9292414 13.5302069,11.9292414 C14.1182069,11.9292414 14.3015172,12.3624828 14.3015172,12.996 L14.3015172,15.5201379 L15.9264828,15.5201379 L15.9264828,12.8151724 L15.9264828,12.8151724 Z M12.6318621,11.3524138 C12.6347586,11.3478621 12.6397241,11.3424828 12.6430345,11.337931 L12.6430345,11.3524138 L12.6318621,11.3524138 L12.6318621,11.3524138 Z" id="Imported-Layers" fill="#3E53A4"></path>
                        </g>
                    </g>
                </g>
            </g>
        </g>
    </g>
</svg>

<svg width="26" height="26" viewBox="0 0 26 26" xmlns="http://www.w3.org/2000/svg" xmlns:sketch="http://www.bohemiancoding.com/sketch/ns"><title>social-linked</title><desc>Created with Sketch.</desc><g transform="translate(1 1)" sketch:type="MSShapeGroup" fill="none"><circle stroke="#3E53A4" stroke-width="2" cx="12" cy="12" r="12"/><path d="M16.483 17.587h-9.379c-.61 0-1.104-.494-1.104-1.104v-9.379c0-.61.494-1.104 1.104-1.104h9.379c.61 0 1.104.494 1.104 1.104v9.379c0 .61-.494 1.104-1.104 1.104zm-7.628-9.108c-.475 0-.786.355-.786.821 0 .456.301.821.768.821h.009c.485 0 .787-.365.787-.821-.009-.466-.302-.821-.778-.821zm-.704 7.041h1.57v-4.886h-1.57v4.886zm7.776-2.705c0-1.45-.75-2.258-1.819-2.258-.864 0-1.249.46-1.464.78v-.669h-1.677c.021.442 0 4.851 0 4.851h1.677v-2.635c0-.141.01-.282.053-.383.118-.282.385-.574.834-.574.588 0 .771.433.771 1.067v2.524h1.625v-2.705zm-3.295-1.463l.011-.014v.014h-.011z" fill="#3E53A4"/></g></svg>
